packages/icons/src/run-ci-step-inverse.svg

<svg viewBox="0 0 40 41" xmlns="http://www.w3.org/2000/svg">
<path fill-rule="evenodd" clip-rule="evenodd" d="M4 7.91403C3.44771 7.91403 3 8.36175 3 8.91403V33.914C3 34.4663 3.44771 34.914 4 34.914H36C36.5523 34.914 37 34.4663 37 33.914V8.91403C37 8.36175 36.5523 7.91403 36 7.91403H4ZM4 11.6845V8.91403L36 8.91403V11.6845H4ZM4 12.6845H36V33.914H4V12.6845ZM10.7546 15.9837C10.5169 15.8431 10.2103 15.9218 10.0697 16.1595C9.92914 16.3972 10.0079 16.7038 10.2455 16.8444L17.8904 21.3661L10.2468 25.8574C10.0087 25.9973 9.9291 26.3037 10.069 26.5418C10.2089 26.7798 10.5153 26.8594 10.7534 26.7195L18.397 22.2283C19.0538 21.8424 19.0551 20.8932 18.3995 20.5054L10.7546 15.9837ZM21.8941 25.914C21.618 25.914 21.3941 26.1379 21.3941 26.414C21.3941 26.6902 21.618 26.914 21.8941 26.914H29.5001C29.7762 26.914 30.0001 26.6902 30.0001 26.414C30.0001 26.1379 29.7762 25.914 29.5001 25.914H21.8941Z" fill="white"/>
</svg>

<svg viewBox="0 0 40 41" xmlns="http://www.w3.org/2000/svg"><path clip-rule="evenodd" d="m4 7.91403c-.55229 0-1 .44772-1 1v24.99997c0 .5523.44771 1 1 1h32c.5523 0 1-.4477 1-1v-24.99997c0-.55228-.4477-1-1-1zm0 3.77047v-2.77047h32v2.77047zm0 1h32v21.2295h-32zm6.7546 3.2992c-.2377-.1406-.5443-.0619-.6849.1758-.14056.2377-.0618.5443.1758.6849l7.6449 4.5217-7.6436 4.4913c-.2381.1399-.3177.4463-.1778.6844.1399.238.4463.3176.6844.1777l7.6436-4.4912c.6568-.3859.6581-1.3351.0025-1.7229zm11.1395 9.9303c-.2761 0-.5.2239-.5.5 0 .2762.2239.5.5.5h7.606c.2761 0 .5-.2238.5-.5 0-.2761-.2239-.5-.5-.5z" fill="#fff" fill-rule="evenodd"/></svg>
